packages/sources/assets/src/assets/przelewy24.svg

<svg width="58" height="40" viewBox="0 0 58 40" fill="none" xmlns="http://www.w3.org/2000/svg">
<rect x="0.5" y="0.5" width="57" height="39" rx="3.5" fill="white" stroke="#F3F3F3"/>
<path fill-rule="evenodd" clip-rule="evenodd" d="M9.53279 19.7844C9.67319 19.8416 9.80059 19.9144 9.88899 20.008C9.95659 20.0782 10.0086 20.151 10.0528 20.2316C10.1776 20.4604 10.201 20.6996 10.1984 20.8582C10.1984 20.9726 10.1828 21.0454 10.1828 21.0454C10.1828 21.0454 10.175 21.1078 10.162 21.2066C10.1308 21.4328 10.071 21.8592 10.0112 22.2154C9.95659 22.5378 9.89159 22.803 9.89159 22.803C9.89159 22.803 9.73299 23.518 9.14019 23.8326C8.54739 24.1472 7.71019 24.1134 7.71019 24.1134L5.56259 24.103L5.12579 26.755H4.01819L5.20379 19.5946H6.52719H8.30559C8.30559 19.5946 8.38879 19.5946 8.51879 19.5998C8.65919 19.605 8.85679 19.6206 9.05959 19.657C9.22079 19.6856 9.38459 19.7272 9.53279 19.7844ZM8.80739 22.5404C8.93739 21.8592 9.03619 21.2846 9.03619 21.2716C9.03619 21.2703 9.0367 21.2665 9.0375 21.2606L9.03751 21.2605L9.03751 21.2605L9.03751 21.2605C9.0415 21.2309 9.05264 21.1484 9.04399 21.0532C9.03619 20.9752 9.01539 20.8868 8.96079 20.8192C8.91919 20.7672 8.78919 20.7334 8.62539 20.7126C8.43559 20.6866 8.20419 20.6788 8.02999 20.6762C7.87659 20.6736 7.76739 20.6762 7.76739 20.6762L6.14239 20.671L5.74719 23.05L7.54119 23.0552C7.54119 23.0552 7.94939 23.0708 8.32899 22.9902C8.55779 22.9408 8.75799 22.8004 8.80739 22.5404ZM18.404 21.5862L14.3376 21.5914L14.1738 22.6002H16.7764L13.516 25.7228L13.3392 26.755L17.5434 26.7524L17.7098 25.754L14.855 25.7592L18.2558 22.5118L18.404 21.5862ZM23.9186 19.5946H24.9846L23.7912 26.755L22.7226 26.7524L23.9186 19.5946ZM30.6292 21.5888L29.6074 21.5914L30.1274 26.755L31.365 26.7498L32.9536 23.1358L33.3176 26.7498H34.576L36.8276 21.5888H35.7668L34.1964 25.2366L33.8246 21.5862L32.5636 21.5836L30.9906 25.2236L30.6292 21.5888ZM20.6946 21.5212C21.134 21.516 21.6514 21.5368 21.9504 21.633C22.8396 21.9242 22.9618 22.6652 22.7902 23.6376L22.642 24.4956L19.171 24.506C19.171 24.506 19.1034 24.6646 19.0748 25.273C19.0722 25.2886 19.0722 25.299 19.0722 25.3068C19.0238 25.8048 19.5733 25.815 19.7427 25.8182C19.7555 25.8184 19.7662 25.8186 19.7742 25.819L19.8092 25.8208C19.9487 25.828 20.2626 25.8443 20.8064 25.7826C21.4044 25.715 21.4642 24.9844 21.4642 24.9844L22.5692 24.9818L22.5016 25.26L22.4999 25.267C22.491 25.3055 22.4545 25.462 22.3534 25.6786C22.2442 25.9126 22.0908 26.1102 22.0908 26.1102C22.0908 26.1102 21.7476 26.5678 21.0976 26.7212C20.4476 26.8746 19.5844 26.807 19.5844 26.807C19.5844 26.807 19.1736 26.8174 18.69 26.6302C18.2064 26.4456 18.0738 26.0478 17.9984 25.6214C17.923 25.1924 18.1778 23.9106 18.1778 23.9106C18.1778 23.9106 18.3052 22.751 18.7342 22.2206C19.1632 21.6902 19.9172 21.581 19.9172 21.581C20.0758 21.5472 20.2708 21.5264 20.6946 21.5212ZM19.34 23.5128L21.719 23.5154C21.719 23.5154 21.8074 23.089 21.7242 22.8082C21.6878 22.6886 21.5526 22.608 21.4096 22.5794C20.9806 22.491 20.4528 22.53 20.2552 22.5482C20.0576 22.5664 19.847 22.5898 19.6806 22.7146C19.5168 22.8394 19.4336 23.1358 19.4336 23.1358L19.34 23.5128ZM28.4998 21.6356C28.2008 21.5394 27.6834 21.5186 27.244 21.5238C26.8202 21.529 26.6252 21.5498 26.4666 21.5836C26.4666 21.5836 25.7126 21.6928 25.2836 22.2232C24.8546 22.7536 24.7272 23.9132 24.7272 23.9132C24.7272 23.9132 24.4724 25.195 24.5478 25.624C24.6232 26.0504 24.7558 26.4482 25.2394 26.6328C25.723 26.82 26.1338 26.8096 26.1338 26.8096C26.1338 26.8096 26.997 26.8772 27.647 26.7238C28.297 26.5704 28.6402 26.1128 28.6402 26.1128C28.6402 26.1128 28.7936 25.9152 28.9028 25.6812C29.0039 25.4646 29.0404 25.3081 29.0493 25.2696L29.051 25.2626L29.1186 24.9844L28.0136 24.987C28.0136 24.987 27.9538 25.7176 27.3558 25.7852C26.8371 25.8441 26.5276 25.832 26.3791 25.8261C26.3571 25.8253 26.3387 25.8245 26.3236 25.8242C26.3158 25.8239 26.3056 25.8236 26.2934 25.8234L26.2933 25.8234L26.2932 25.8234C26.1252 25.82 25.5731 25.8087 25.6216 25.312C25.6216 25.3042 25.6216 25.2938 25.6242 25.2782C25.6528 24.6698 25.7204 24.5112 25.7204 24.5112L29.1914 24.5008L29.3396 23.6428C29.5112 22.6678 29.389 21.9242 28.4998 21.6356ZM28.258 23.5154L25.879 23.5128L25.9726 23.1358C25.9726 23.1358 26.0558 22.8394 26.2196 22.7146C26.3834 22.5898 26.5966 22.5664 26.7942 22.5482C26.9918 22.53 27.5196 22.491 27.9486 22.5794C28.0916 22.608 28.2268 22.6886 28.2632 22.8082C28.3464 23.0864 28.258 23.5154 28.258 23.5154ZM38.0548 21.5914L38.7386 25.3666L40.6704 21.5888L41.7572 21.5992L38.9726 26.9942C38.9726 26.9942 38.4682 27.9718 38.1562 28.2188C37.8442 28.4658 37.6518 28.5776 37.397 28.6036L37.3287 28.6107C37.1213 28.6325 37.0151 28.6436 36.7938 28.6036L36.5338 28.5568L36.695 27.5922C36.695 27.5922 37.1266 27.6728 37.3814 27.5714C37.6388 27.47 37.8442 27.0332 37.8442 27.0332L37.9742 26.8148L36.968 21.5888L38.0548 21.5914ZM11.8 21.945C12.1458 21.7552 12.5514 21.5862 12.9804 21.5862H13.5992L13.4224 22.5846L12.8348 22.5872C11.9924 22.5872 11.5608 23.3022 11.4568 23.8794L10.9524 26.7264H9.81359L10.7236 21.5862H11.8598L11.8 21.945Z" fill="#D13239"/>
<path fill-rule="evenodd" clip-rule="evenodd" d="M33.835 14.6728L35.1558 12.0182C35.1558 12.0182 38.0496 11.961 40.5456 12.3484C43.0416 12.7332 45.3244 13.326 45.275 13.352L38.9466 16.6618C38.9466 16.6618 37.4672 15.7258 35.6316 15.1512C34.5916 14.8444 33.835 14.6728 33.835 14.6728ZM25.4682 13.4248L25.7438 14.9718C25.7438 14.9718 27.0178 14.6338 28.544 14.4518C30.5044 14.184 32.5922 14.47 32.5922 14.47L33.3774 12.0806C33.3774 12.0806 31.0036 12.2392 29.2122 12.572C27.4234 12.9048 25.4682 13.4248 25.4682 13.4248ZM19.5766 17.5068L17.9932 16.4408C17.9932 16.4408 19.4258 15.627 21.3316 14.8678C23.2348 14.1086 24.2514 13.7914 24.2514 13.7914L24.5738 15.302C24.5738 15.302 22.7408 15.9156 21.6904 16.4122C20.6036 16.875 19.5766 17.5068 19.5766 17.5068ZM15.6532 20.1848H12.2394C12.2394 20.1848 13.5706 19.1656 14.2414 18.7262C14.933 18.2504 16.5632 17.2416 16.5632 17.2416L18.4924 18.1438C18.4924 18.1438 17.5044 18.7704 16.961 19.1682C16.4176 19.566 15.6532 20.1848 15.6532 20.1848ZM42.1524 22.1036L43.273 22.1062L43.3406 21.672C43.3406 21.672 43.4602 20.8868 43.728 20.736C43.8138 20.6866 43.9516 20.6424 44.1102 20.6138C44.404 20.5618 44.7758 20.5566 45.08 20.567L45.1052 20.5679C45.552 20.5828 45.7309 20.5888 46.1954 20.6424C46.6686 20.697 46.549 21.1546 46.549 21.1546L46.4554 21.8384C46.4554 21.8384 46.4138 22.1452 46.3046 22.335C46.2084 22.504 45.9432 22.6184 45.7898 22.6678C45.4206 22.7874 44.157 23.1098 44.157 23.1098L43.1638 23.3958C43.1638 23.3958 42.5528 23.5726 42.2122 23.9496C41.869 24.3292 41.7338 24.7582 41.687 24.9818C41.6402 25.2054 41.3776 26.7524 41.3776 26.7524L46.7388 26.755L46.9182 25.6838L42.6776 25.689L42.753 25.2522C42.753 25.2522 42.8024 24.8024 42.9844 24.6542C42.9932 24.647 43.0014 24.6394 43.0101 24.6313C43.0578 24.5868 43.1224 24.5266 43.4082 24.4254C43.611 24.3526 44.3026 24.168 44.3026 24.168L45.9016 23.7312C45.9016 23.7312 46.7752 23.5076 47.1184 23.0292C47.4616 22.5534 47.5942 21.6408 47.5942 21.6408C47.5942 21.6408 47.6878 20.7542 47.615 20.476C47.5448 20.1978 47.2822 19.865 46.9624 19.722C46.6426 19.579 46.3098 19.4958 45.3452 19.5088C44.3806 19.5218 43.9022 19.566 43.4134 19.748C42.9246 19.9274 42.6412 20.255 42.4618 20.7178C42.2668 21.1572 42.1524 22.1036 42.1524 22.1036ZM52.2456 24.0952L52.997 19.592H51.6658L47.5214 24.0432L47.3342 25.1716H50.9586L50.6934 26.7524L51.8062 26.755L52.0688 25.1716L53.0958 25.1742L53.2804 24.0952H52.2456ZM51.138 24.0978L48.7954 24.0952L51.6476 21.0558L51.138 24.0978ZM41.4712 18.4376L40.0802 17.382L48.005 14.3244L48.0663 14.3523C49.0752 14.8103 49.6369 15.0653 50.6258 15.7076C51.021 15.965 51.5462 16.3758 51.6788 16.5058C52.0402 16.8672 52.386 17.2156 52.5758 17.5432C52.88 18.0684 52.9034 18.4376 52.9034 18.4376H41.4712Z" fill="#B3B2B1"/>
</svg>

<svg width="58" height="40" fill="none" xmlns="http://www.w3.org/2000/svg"><rect x=".5" y=".5" width="57" height="39" rx="3.5" fill="#fff" stroke="#F3F3F3"/><path fill-rule="evenodd" clip-rule="evenodd" d="M9.533 19.784c.14.058.268.13.356.224.068.07.12.143.164.224.125.228.148.468.145.626a.984.984 0 0 1-.015.187l-.021.162a37.89 37.89 0 0 1-.15 1.008c-.055.323-.12.588-.12.588s-.159.715-.752 1.03c-.593.314-1.43.28-1.43.28l-2.147-.01-.437 2.652H4.018l1.186-7.16h3.102s.083 0 .213.005c.14.005.338.02.54.057.162.029.326.07.474.127Zm-.726 2.756a49.949 49.949 0 0 0 .23-1.28c.004-.03.016-.112.007-.207a.44.44 0 0 0-.083-.234c-.042-.052-.172-.086-.336-.106a5.296 5.296 0 0 0-.595-.037c-.153-.002-.263 0-.263 0l-1.625-.005-.395 2.379 1.794.005s.408.016.788-.065c.229-.05.429-.19.478-.45Zm9.597-.954-4.066.005-.164 1.01h2.602l-3.26 3.122-.177 1.032 4.204-.003.167-.998-2.855.005 3.4-3.247.149-.926Zm5.515-1.991h1.066l-1.194 7.16-1.068-.003 1.196-7.157Zm6.71 1.994-1.022.002.52 5.164 1.238-.005 1.589-3.614.364 3.614h1.258l2.252-5.161h-1.061l-1.57 3.648-.372-3.65-1.261-.003-1.573 3.64-.362-3.635Zm-9.934-.068c.439-.005.956.016 1.255.112.89.291 1.012 1.032.84 2.005l-.148.858-3.471.01s-.068.159-.096.767c-.003.016-.003.026-.003.034-.048.498.501.508.67.511l.032.001.035.002c.14.007.454.023.997-.038.598-.068.658-.799.658-.799l1.105-.002-.067.278-.002.007a2.078 2.078 0 0 1-.147.412c-.109.234-.262.431-.262.431s-.343.458-.993.611c-.65.154-1.514.086-1.514.086s-.41.01-.894-.177c-.484-.184-.616-.582-.692-1.009-.075-.429.18-1.71.18-1.71s.127-1.16.556-1.69c.43-.53 1.183-.64 1.183-.64.159-.034.354-.055.778-.06Zm-1.355 1.992 2.379.002s.088-.426.005-.707c-.036-.12-.171-.2-.314-.229-.43-.088-.957-.049-1.155-.03-.197.017-.408.04-.574.166-.164.124-.247.42-.247.42l-.094.378Zm9.16-1.877c-.3-.097-.817-.117-1.256-.112-.424.005-.619.026-.777.06 0 0-.754.109-1.183.64-.43.53-.557 1.69-.557 1.69s-.255 1.281-.18 1.71c.076.426.209.824.692 1.009.484.187.895.177.895.177s.863.067 1.513-.086c.65-.154.993-.611.993-.611s.154-.198.263-.432c.1-.216.137-.373.146-.411l.002-.007.068-.279-1.105.003s-.06.73-.658.798a5.95 5.95 0 0 1-.977.041l-.055-.002h-.03c-.169-.004-.72-.015-.672-.512 0-.008 0-.018.002-.034.029-.608.096-.767.096-.767l3.471-.01.149-.858c.171-.975.049-1.719-.84-2.007Zm-.242 1.88-2.379-.003.094-.377s.083-.297.247-.421c.163-.125.377-.149.574-.167.198-.018.726-.057 1.155.031.143.029.278.11.314.23.083.277-.005.706-.005.706Zm9.797-1.925.684 3.776 1.931-3.778 1.087.01-2.784 5.395s-.505.978-.817 1.225c-.312.247-.504.359-.759.385l-.068.007a1.56 1.56 0 0 1-.535-.007l-.26-.047.161-.965s.432.08.686-.02c.258-.102.463-.539.463-.539l.13-.218-1.006-5.226 1.087.002Zm-26.255.354c.346-.19.751-.359 1.18-.359h.62l-.178.999-.587.002c-.843 0-1.274.715-1.378 1.292l-.505 2.847H9.814l.91-5.14h1.136l-.06.359Z" fill="#D13239"/><path fill-rule="evenodd" clip-rule="evenodd" d="m33.835 14.673 1.32-2.655s2.895-.057 5.39.33c2.497.385 4.78.978 4.73 1.004l-6.328 3.31s-1.48-.936-3.315-1.51a32.296 32.296 0 0 0-1.797-.48Zm-8.367-1.248.276 1.547s1.274-.338 2.8-.52c1.96-.268 4.048.018 4.048.018l.785-2.39s-2.373.16-4.165.492a59.03 59.03 0 0 0-3.744.853Zm-5.891 4.082-1.584-1.066s1.433-.814 3.339-1.573c1.903-.76 2.92-1.077 2.92-1.077l.322 1.511s-1.833.614-2.884 1.11a18.365 18.365 0 0 0-2.113 1.095Zm-3.924 2.678H12.24s1.332-1.02 2.002-1.459c.692-.476 2.322-1.484 2.322-1.484l1.93.902s-.989.626-1.532 1.024-1.308 1.017-1.308 1.017Zm26.5 1.919 1.12.002.068-.434s.12-.785.387-.936c.086-.05.224-.094.382-.122.294-.052.666-.057.97-.047h.025c.447.016.626.022 1.09.075.474.055.354.513.354.513l-.094.683s-.041.307-.15.497c-.097.169-.362.283-.515.333-.37.12-1.633.442-1.633.442l-.993.286s-.611.177-.952.554a2.28 2.28 0 0 0-.525 1.032c-.047.223-.31 1.77-.31 1.77l5.362.003.18-1.071-4.241.005.075-.437s.05-.45.231-.598a.535.535 0 0 0 .026-.023c.048-.044.112-.104.398-.206.203-.072.895-.257.895-.257l1.599-.437s.873-.223 1.216-.702c.344-.476.476-1.388.476-1.388s.094-.887.021-1.165c-.07-.278-.333-.611-.653-.754-.32-.143-.652-.226-1.617-.213-.964.013-1.443.057-1.932.239-.488.18-.772.507-.951.97-.195.44-.31 1.386-.31 1.386Zm10.093 1.991.751-4.503h-1.331l-4.145 4.451-.187 1.129h3.625l-.266 1.58 1.113.003.263-1.583 1.027.002.184-1.079h-1.034Zm-1.108.003-2.343-.003 2.853-3.04-.51 3.043Zm-9.667-5.66-1.39-1.056 7.924-3.058.061.028c1.01.458 1.57.713 2.56 1.356.395.257.92.668 1.053.798.361.361.707.71.897 1.037.304.525.327.895.327.895H41.471Z" fill="#B3B2B1"/></svg>
